X:204
T:Wedding Day
C:Donnell Leahy and Natalie MacMaster
R:jig
M:6/8
L:1/8
K:Gdor
DGG FDG|F2 F EDC|DGG, B,CD|FDC D2 F|
FDF G2 G|F2 F EDC|DFD DCA,|DCA, G,3:|
G,BG, cG,d-|dcB GFG|GBd gab|agf g3|
G,BG, cG,d-|dcf gfd|dcB def|cBA G3|
G,BG, cG,d-|dcB GFG|GBd gab|agf g2 g/a/|
bag agf|gfd fdc|dcB cBA|BAG ^F3||
